builds/assets/images/general/white_airplane.svg

<svg width="382" height="274" viewBox="0 0 382 274" xmlns="http://www.w3.org/2000/svg"><title>white_airplane</title><g fill="none" fill-rule="evenodd"><path d="M377.3 12.9c-7.2 0-34.6 3.2-39.4 3.8-17.1 2.3-34.1 4.6-51.2 6.8-40.7 5.4-81.4 10.9-122.1 16.3-36.8 4.9-73.7 9.8-110.5 14.8l-31.2 4.2-15.6 2.1c-1.6.2-5 .6-6.6 1.1-1.1.4.4 2.1 1.5 3.1.7.6 1.3 1.4 2 2.1l5.1 5.4c4.6 4.9 9.2 9.8 13.9 14.7 10.6 11.2 21.1 22.5 31.7 33.7 5.4 5.7 10.7 11.4 16.1 17.1 1.3 10.8 2.6 21.7 3.9 32.5 1.8 14.8 3.5 29.7 5.3 44.5.4 3.1.7 6.2 1.1 9.4.2 2.1 1 10.8 3 9.7 3-1.7 8.2-4.8 10.6-6.4 5.1-3.5 10.2-6.9 15.3-10.4 7-4.7 13.9-9.4 20.9-14.1 5.3 6.2 10.7 12.5 16 18.8 9.8 11.5 19.7 23.1 29.5 34.6 3.1 3.7 6.3 7.4 9.4 11l3.3 3.9c.4.4.9 1.4 1.4 1.6 3.6 2 4.8-2.3 6.4-4.4 2.6-3.7 5.3-7.4 7.9-11.1 5.3-7.4 10.6-14.8 15.8-22.1 20.9-29.2 41.8-58.4 62.7-87.7 21.2-29.7 42.4-59.3 63.6-89 6-8.3 11.9-16.6 17.8-25 2.4-3.4 16.7-21 12.4-21z" opacity=".1" fill="#757575"/><path d="M93.9 151.3c1-3.8 1.4-7.1 3.2-9.7.9-1.3 2.2-2.5 4.1-3.5 16.3-8.6 33.1-16.2 49.6-24.3 22.9-11.2 45.8-22.4 68.7-33.7 23.8-11.7 47.6-23.3 71.4-35 18.1-8.9 36.2-17.7 54.3-26.6 5.9-2.9 11.9-6.6 18-8.8L75.1 116.1l6.9 79.4c2.3-8.7 4.7-17.4 7-26 1.6-6.1 3.3-12.2 4.9-18.2z" fill="#FFB74D"/><path d="M10.3 40.5l63.2 71.6L363 5 10.3 40.5z" fill="#FFE0B2"/><path d="M83.7 205.8l42.2-26.6-26.2-32.8-16 59.4z" fill="#FFCC80"/><path d="M187.5 249.5l182.9-239-268.3 131.9 85.4 107.1z" fill="#FFE0B2"/><path d="M341.4 2.8C324.3 4.5 307.2 6.2 290 8c-40.8 4.1-81.7 8.2-122.5 12.3-37 3.7-74 7.4-110.9 11.2-17.9 1.8-35.8 3.6-53.8 5.4h-.5l-.8.1 69.2 78.5c.9 10.9 1.9 21.7 2.8 32.6l3.9 44.7c.3 3.1.5 6.3.8 9.4.2 2.1.6 10.8 2.7 9.8 3-1.6 8.3-4.5 10.8-6.1l15.6-9.9c7.1-4.5 14.2-9 21.3-13.4l58.6 73.5.3.4c9.9-12.9 19.7-25.8 29.6-38.7 21.8-28.5 43.7-57.1 65.5-85.6 22.2-29 44.3-57.9 66.5-86.9 6.2-8.1 12.4-16.2 18.7-24.4C370.4 17.5 385.2.4 380.9.2c-7.1-.1-34.7 2.1-39.5 2.6zM10.3 40.5L363 5 73.5 112.1 10.3 40.5zm71.7 155l-6.9-79.4L363.4 9.6c-6.2 2.3-12.1 5.9-18 8.8-18.1 8.9-36.2 17.7-54.3 26.6-23.8 11.7-47.6 23.3-71.4 35-22.9 11.2-45.8 22.4-68.7 33.7-16.5 8.1-33.4 15.7-49.6 24.3-1.9 1-3.2 2.2-4.1 3.5-1.8 2.6-2.2 5.9-3.2 9.7-1.6 6.1-3.3 12.2-4.9 18.2-2.5 8.8-4.9 17.5-7.2 26.1zm1.7 10.3l16.1-59.4 26.2 32.8-42.3 26.6zm103.8 43.7l-85.4-107L370.3 10.6 187.5 249.5z" fill="#FFF3E0"/></g></svg>

<svg width="382" height="274" viewBox="0 0 382 274" xmlns="http://www.w3.org/2000/svg"><title>white_airplane</title><g id="Page-1" fill="none" fill-rule="evenodd"><g id="white_airplane"><g id="airplane"><path d="M377.3,12.9 C370.1,12.9 342.7,16.1 337.9,16.7 C320.8,19 303.8,21.3 286.7,23.5 C246,28.9 205.3,34.4 164.6,39.8 C127.8,44.7 90.9,49.6 54.1,54.6 L22.9,58.8 L7.3,60.9 C5.7,61.1 2.3,61.5 0.7,62 C-0.4,62.4 1.1,64.1 2.2,65.1 C2.9,65.7 3.5,66.5 4.2,67.2 L9.3,72.6 C13.9,77.5 18.5,82.4 23.2,87.3 C33.8,98.5 44.3,109.8 54.9,121 C60.3,126.7 65.6,132.4 71,138.1 C72.3,148.9 73.6,159.8 74.9,170.6 C76.7,185.4 78.4,200.3 80.2,215.1 C80.6,218.2 80.9,221.3 81.3,224.5 C81.5,226.6 82.3,235.3 84.3,234.2 C87.3,232.5 92.5,229.4 94.9,227.8 C100,224.3 105.1,220.9 110.2,217.4 C117.2,212.7 124.1,208 131.1,203.3 C136.4,209.5 141.8,215.8 147.1,222.1 C156.9,233.6 166.8,245.2 176.6,256.7 C179.7,260.4 182.9,264.1 186,267.7 L189.3,271.6 C189.7,272 190.2,273 190.7,273.2 C194.3,275.2 195.5,270.9 197.1,268.8 C199.7,265.1 202.4,261.4 205,257.7 C210.3,250.3 215.6,242.9 220.8,235.6 C241.7,206.4 262.6,177.2 283.5,147.9 C304.7,118.2 325.9,88.6 347.1,58.9 C353.1,50.6 359,42.3 364.9,33.9 C367.3,30.5 381.6,12.9 377.3,12.9 L377.3,12.9 L377.3,12.9 Z" id="Shape" opacity=".1" fill="#757575"/><path d="M93.9,151.3 C94.9,147.5 95.3,144.2 97.1,141.6 C98,140.3 99.3,139.1 101.2,138.1 C117.5,129.5 134.3,121.9 150.8,113.8 C173.7,102.6 196.6,91.4 219.5,80.1 C243.3,68.4 267.1,56.8 290.9,45.1 C309,36.2 327.1,27.4 345.2,18.5 C351.1,15.6 357.1,11.9 363.2,9.7 L75.1,116.1 L82,195.5 C84.3,186.8 86.7,178.1 89,169.5 C90.6,163.4 92.3,157.3 93.9,151.3 L93.9,151.3 Z" id="Shape" fill="#FFB74D"/><path d="M10.3,40.5 L73.5,112.1 L363,5 L10.3,40.5 L10.3,40.5 Z" id="Shape" fill="#FFE0B2"/><path d="M83.7,205.8 L125.9,179.2 L99.7,146.4 L83.7,205.8 L83.7,205.8 Z" id="Shape" fill="#FFCC80"/><path d="M187.5,249.5 L370.4,10.5 L102.1,142.4 L187.5,249.5 L187.5,249.5 Z" id="Shape" fill="#FFE0B2"/><path d="M341.4,2.8 C324.3,4.5 307.2,6.2 290,8 C249.2,12.1 208.3,16.2 167.5,20.3 C130.5,24 93.5,27.7 56.6,31.5 C38.7,33.3 20.8,35.1 2.8,36.9 L2.3,36.9 L1.5,37 L70.7,115.5 C71.6,126.4 72.6,137.2 73.5,148.1 L77.4,192.8 C77.7,195.9 77.9,199.1 78.2,202.2 C78.4,204.3 78.8,213 80.9,212 C83.9,210.4 89.2,207.5 91.7,205.9 L107.3,196 C114.4,191.5 121.5,187 128.6,182.6 L187.2,256.1 L187.5,256.5 C197.4,243.6 207.2,230.7 217.1,217.8 C238.9,189.3 260.8,160.7 282.6,132.2 C304.8,103.2 326.9,74.3 349.1,45.3 C355.3,37.2 361.5,29.1 367.8,20.9 C370.4,17.5 385.2,0.4 380.9,0.2 C373.8,0.1 346.2,2.3 341.4,2.8 L341.4,2.8 L341.4,2.8 Z M10.3,40.5 L363,5 L73.5,112.1 L10.3,40.5 L10.3,40.5 Z M82,195.5 L75.1,116.1 L363.4,9.6 C357.2,11.9 351.3,15.5 345.4,18.4 C327.3,27.3 309.2,36.1 291.1,45 C267.3,56.7 243.5,68.3 219.7,80 C196.8,91.2 173.9,102.4 151,113.7 C134.5,121.8 117.6,129.4 101.4,138 C99.5,139 98.2,140.2 97.3,141.5 C95.5,144.1 95.1,147.4 94.1,151.2 C92.5,157.3 90.8,163.4 89.2,169.4 C86.7,178.2 84.3,186.9 82,195.5 L82,195.5 L82,195.5 Z M83.7,205.8 L99.8,146.4 L126,179.2 L83.7,205.8 L83.7,205.8 Z M187.5,249.5 L102.1,142.5 L370.3,10.6 L187.5,249.5 L187.5,249.5 L187.5,249.5 Z" id="Shape" fill="#FFF3E0"/></g></g></g></svg>
